X:1
T:Title
%%score { ( 1 3 5 ) | ( 2 4 ) }
L:1/8
M:4/4
K:Db
V:1 treble nm="Grand Piano"
V:3 treble 
V:5 treble 
V:2 bass 
V:4 bass 
V:1
 z4 z2[Q:1/4=100] D2 | D3 D E2 F2 | [B,DF]3 [B,DE] E2 F2 | G2 A2 B2 [Cc]2 |[M:3/4] A6 | %5
[M:1/4] [A,EA]2 |[M:4/4] [Dd]3 [Ec] [FB]2 [DF]2 | [FA]3 G G2 F2 | D4 z4 |[M:3/4] [A,CE]6 | %10
[M:1/4] [A,E]2 |[M:4/4] [B,DG]3 [A,DF][K:bass] [G,DE]2 E2 | A3 G F2 [EF]2 | %13
 [=DB]3 [DA] [B,DG]2 [A,DF]2 |[M:2/4] [G,EG]4 | [_CFA]4 |[M:4/4] B3 B c2 c2 | d2 =d2 e2 B2 | %18
 [Ec]2 [DB]2 G3 E |[M:3/4] D6 |] %20
V:2
 z4 z2 [D,F,]2 | [D,F,A,]3 [D,F,] [D,G,D]2 [D,A,D]2 | G,,3 G,, [G,B,D]2 [F,A,D]2 | %3
 [E,B,D]2 [E,A,D]2 [E,G,D]2 [A,,G,]2 |[M:3/4] [G,C]4 z2 |[M:1/4] C,2 | %6
[M:4/4] [B,,F,]3 [C,F,] [D,F,]2 [B,,B,]2 | [E,B,]3 [E,B,E] [E,B,E]2 [F,=A,C]2 | [F,B,]2 z2 z4 | %9
[M:3/4] A,,6 |[M:1/4] A,,2 |[M:4/4] A,,3 A,, A,,2 [G,A,C]2 | [F,A,D]3 [E,A,C] [D,A,D]2 [_C,A,]2 | %13
 A,2 F,2 z4 |[M:2/4] E,4 | D,4 |[M:4/4] [G,B,G]3 [G,B,D] [F,B,E]2 [F,=A,E]2 | %17
 [B,D]2 [A,_CF]2[K:bass] [G,B,E]2 [E,G,E]2 | [A,,G,]2 [A,,E,]2 [A,,E,]2 [A,,G,]2 | %19
[M:3/4] [D,F,]6 |] %20
V:3
 x8 | x8 | x8 | x8 |[M:3/4] z2 z2 D2 |[M:1/4] x2 |[M:4/4] x8 | x8 | z2 z D [A,DF]2 [=G,DE]2 | %9
[M:3/4] x6 |[M:1/4] x2 |[M:4/4] x4[K:bass] x4 | x8 | x8 |[M:2/4] x4 | x4 |[M:4/4] x8 | x8 | %18
 z4 B,2 C2 |[M:3/4] x6 |] %20
V:4
 x8 | x8 | x8 | x8 |[M:3/4] D,4- [D,F,]2 |[M:1/4] x2 |[M:4/4] x8 | x8 | B,,3 B,, E,2 E,2 | %9
[M:3/4] x6 |[M:1/4] x2 |[M:4/4] x8 | x8 | B,,3 B,, B,,2 B,,2 |[M:2/4] x4 | x4 |[M:4/4] x8 | %17
 x4[K:bass] x4 | x8 |[M:3/4] x6 |] %20
V:5
 x8 | x8 | x8 | x8 |[M:3/4] x6 |[M:1/4] x2 |[M:4/4] x8 | x8 | z2 B,2 z4 |[M:3/4] x6 |[M:1/4] x2 | %11
[M:4/4] x4[K:bass] x4 | x8 | x8 |[M:2/4] x4 | x4 |[M:4/4] x8 | x8 | x8 |[M:3/4] x6 |] %20

